X:6
T:Franse Polka
O:Boortmeerbeek
O:Vlaanderen
B:Lange Wappers Dansboekskens
B:Muziek II
M:C|
L:1/8
K:G
P:A
D2 |: G2 G2 G2 G2 | G>F G>A B2-B z | B2 B2 B2 B2 | B>A B>c d2-d z |
c>d e>c A2-A z | B>c d>B G2-G z | A>B c>A F2 D2 | G>A B>c d2-d z |
c>d e>c A2-A z | B>c d>B G2-G z | A>B c>A F2 D2 |1 A4 G2 D2 :|2 G2 G2 G2 z2 |
P:B
|: G4 | D4 | B4 | G4 |
d>d dd | ed cB |1 A z d>e | dc BA :|2 A z d2 | G2-G ||
